lib/flags/s/NAM.svg

<svg xmlns="http://www.w3.org/2000/svg" fill="none" viewBox="0 0 16 12"><mask id="NAM_svg__a" width="16" height="12" x="0" y="0" mask-type="alpha" maskUnits="userSpaceOnUse"><path fill="#fff" d="M0 0H16V12H0z"/></mask><g mask="url(#NAM_svg__a)"><path fill="#093" fill-rule="evenodd" d="M0 0V12H16V0H0Z" clip-rule="evenodd"/><mask id="NAM_svg__b" width="16" height="12" x="0" y="0" mask-type="alpha" maskUnits="userSpaceOnUse"><path fill="#fff" fill-rule="evenodd" d="M0 0V12H16V0H0Z" clip-rule="evenodd"/></mask><g mask="url(#NAM_svg__b)"><path fill="#3195F9" fill-rule="evenodd" d="M0 0V12L16 0H0Z" clip-rule="evenodd"/><path fill="#E31D1C" stroke="#F7FCFF" d="M-0.506236 13.5468L-0.240958 14.0274L0.21286 13.7185L17.6288 1.86383L17.9798 1.62488L17.8009 1.23978L16.6299 -1.27981L16.3843 -1.80836L15.8993 -1.48519L-1.77858 10.2931L-2.16135 10.5481L-1.93909 10.9508L-0.506236 13.5468Z"/><path fill="#FECA00" fill-rule="evenodd" d="M3.11483 4.62235L2.46778 5.4296L2.31105 4.40698L1.34706 4.78256L1.72264 3.81857L0.700012 3.66184L1.50727 3.01479L0.700012 2.36774L1.72264 2.21101L1.34706 1.24702L2.31105 1.6226L2.46778 0.599976L3.11483 1.40723L3.76187 0.599976L3.91861 1.6226L4.88259 1.24702L4.50702 2.21101L5.52964 2.36774L4.72239 3.01479L5.52964 3.66184L4.50702 3.81857L4.88259 4.78256L3.91861 4.40698L3.76187 5.4296L3.11483 4.62235ZM3.11483 4.26479C3.80518 4.26479 4.36483 3.70515 4.36483 3.01479C4.36483 2.32443 3.80518 1.76479 3.11483 1.76479C2.42447 1.76479 1.86483 2.32443 1.86483 3.01479C1.86483 3.70515 2.42447 4.26479 3.11483 4.26479ZM4.11483 3.01479C4.11483 3.56708 3.66711 4.01479 3.11483 4.01479C2.56254 4.01479 2.11483 3.56708 2.11483 3.01479C2.11483 2.46251 2.56254 2.01479 3.11483 2.01479C3.66711 2.01479 4.11483 2.46251 4.11483 3.01479Z" clip-rule="evenodd"/></g></g></svg>

<svg xmlns="http://www.w3.org/2000/svg" fill="none" viewBox="0 0 16 12"><mask id="NAM_svg__a" width="16" height="12" x="0" y="0" maskUnits="userSpaceOnUse"><path fill="#fff" d="M0 0h16v12H0z"/></mask><g mask="url(#NAM_svg__a)"><path fill="#093" fill-rule="evenodd" d="M0 0v12h16V0H0z" clip-rule="evenodd"/><mask id="NAM_svg__b" width="16" height="12" x="0" y="0" maskUnits="userSpaceOnUse"><path fill="#fff" fill-rule="evenodd" d="M0 0v12h16V0H0z" clip-rule="evenodd"/></mask><g mask="url(#NAM_svg__b)"><path fill="#3195F9" fill-rule="evenodd" d="M0 0v12L16 0H0z" clip-rule="evenodd"/><path fill="#E31D1C" stroke="#F7FCFF" d="M-.506 13.547l.265.48.454-.308L17.629 1.864l.35-.24-.178-.384-1.171-2.52-.246-.528-.485.323-17.678 11.778-.382.255.222.403 1.433 2.596z"/><path fill="#FECA00" fill-rule="evenodd" d="M3.115 4.622l-.647.808-.157-1.023-.964.376.376-.964L.7 3.662l.807-.647L.7 2.368l1.023-.157-.376-.964.964.376L2.468.6l.647.807L3.762.6l.157 1.023.964-.376-.376.964 1.023.157-.808.647.808.647-1.023.157.376.964-.964-.376-.157 1.023-.647-.808zm0-.357a1.25 1.25 0 100-2.5 1.25 1.25 0 000 2.5zm1-1.25a1 1 0 11-2 0 1 1 0 012 0z" clip-rule="evenodd"/></g></g></svg>
